X:1
T:Curaçao, CMD
T:Curaçao, CMD
T:“H.K.”, 1869
T:Public Domain Courtesy of the Cyber Hymnal™
C:“H.K.”, 1869
Z:Public Domain
Z:Courtesy of the Cyber Hymnal™
%%score ( 1 2 ) ( 3 4 )
L:1/8
Q:1/4=103
M:6/8
K:G
V:1 treble 
V:2 treble 
V:3 bass 
V:4 bass 
V:1
 [DG] | [GB]2 [GB] [Gc]2 [GB] | E2 [DF] [DG]2 [DG] | [Ee]2 [=Fd] [Ac]2 [^GB] | [Ac]3- [Ac]2 [Ac] | %5
 [Ac]2 [Ac] [FB]2 [FA] | [FA]2 [EG] [B,G]2 [CE] | [B,D]2 [DG] [DB]2 [DA] | [DG]3- [DG]2 z | %9
 [Bd]>[Ac][GB] [GB]2 [FA] | [EG]2 [CE] [DG]2 [DG] | [GB]2 G [Ec]2 [Ec] | [^DB]3- [DB]2 [DB] | %13
 [DB]2 [DA] [Fe]2 [Fd] | [Gd]2 [DB] [EG]2 [^CA] | [DB]2 [B,D] [CE]2 [CA] | [B,G]3- [B,G]2 |] %17
V:2
 x | x6 | E2 x4 | x6 | x6 | x6 | x6 | x6 | x6 | x6 | x6 | x2 G x3 | x6 | x6 | x6 | x6 | x5 |] %17
V:3
 [G,B,] | [G,D]2 [G,D] [G,E]2 [G,D] | [G,C]2 [G,C] [G,B,]2 [G,B,] | [C,C]2 [D,B,] [E,E]2 [E,E] | %4
 [A,,E]3- [A,,E]2 [A,E] | [F,E]2 [F,E] [B,^D]2 [B,,B,] | [E,B,]2 [E,B,] [E,G,]2 [C,G,] | %7
 [D,G,]2 [D,B,] [D,D]2 [D,C] | [G,,B,]3- [G,,B,]2 z | [G,D]>[G,D][G,D] [G,D]2 [G,C] | %10
 [G,C]2 G, [G,B,]2 [G,,B,] | [G,,D]2 [G,,B,] [A,,A,]2 [A,,G,] | [B,,F,]3- [B,,F,]2 [B,,F,] | %13
 [D,F,]2 [D,F,] [D,C]2 [D,C] | [G,B,]2 G, [E,B,]2 [E,A,] | [D,G,]2 [D,G,] [D,F,]2 [D,F,] | %16
 [G,,G,]3- [G,,G,]2 |] %17
V:4
 x | x6 | x6 | x6 | x6 | x6 | x6 | x6 | x6 | x6 | x2 G, x3 | x6 | x6 | x6 | x2 G, x3 | x6 | x5 |] %17

